icons/desktop/20/languages-20.svg

<svg width="20" height="20" viewBox="0 0 20 20" fill="none" xmlns="http://www.w3.org/2000/svg">
<g clip-path="url(#clip0_8069_32726)">
<path fill-rule="evenodd" clip-rule="evenodd" d="M15.0001 10C17.7615 10 20.0001 12.2386 20.0001 15C20.0001 17.7614 17.7615 20 15.0001 20C12.2388 19.9999 10.0001 17.7613 10.0001 15C10.0001 12.2387 12.2388 10.0001 15.0001 10ZM15.0011 12.25C14.5871 12.25 14.2511 12.586 14.2511 13V15.1084H12.8946C12.5447 15.1084 12.3694 15.5313 12.6163 15.7783L14.7228 17.8838C14.8758 18.0367 15.1245 18.0367 15.2775 17.8838L17.3849 15.7773C17.6316 15.5304 17.4563 15.1076 17.1066 15.1074H15.7511V13C15.7511 12.5862 15.4148 12.2503 15.0011 12.25Z" fill="black"/>
<path fill-rule="evenodd" clip-rule="evenodd" d="M5.89855 0C6.57841 0.000118714 7.19222 0.409231 7.45519 1.03711L11.1193 9.79785C10.6114 10.1788 10.1613 10.6298 9.78332 11.1396H9.78136L8.55383 8.20703H3.23742L2.12121 10.876C1.98524 11.2019 1.66742 11.4139 1.31457 11.4141C0.68976 11.414 0.266248 10.778 0.50695 10.2012L4.34093 1.03711C4.60292 0.409155 5.21761 5.96164e-05 5.89855 0ZM3.97082 6.45703H7.82531L5.89855 1.84961L3.97082 6.45703Z" fill="black"/>
</g>
<defs>
<clipPath id="clip0_8069_32726">
<rect width="20" height="20" fill="white"/>
</clipPath>
</defs>
</svg>

<!-- This Source Code Form is subject to the terms of the Mozilla Public
   - License, v. 2.0. If a copy of the MPL was not distributed with this
   - file, You can obtain one at http://mozilla.org/MPL/2.0/. -->
<svg xmlns="http://www.w3.org/2000/svg" width="20" height="20" fill="context-fill" fill-opacity="context-fill-opacity" viewBox="0 0 20 20">
    <g fill-rule="evenodd" clip-path="url(#clip0_8069_32726)" clip-rule="evenodd">
        <path d="M15 10a5 5 0 1 1 0 10 5 5 0 0 1 0-10m.001 2.25a.75.75 0 0 0-.75.75v2.108h-1.356a.393.393 0 0 0-.279.67l2.107 2.106a.393.393 0 0 0 .554 0l2.108-2.107a.393.393 0 0 0-.278-.67H15.75V13a.75.75 0 0 0-.75-.75M5.899 0c.68 0 1.293.41 1.556 1.037l3.664 8.76a6.6 6.6 0 0 0-1.336 1.343h-.002L8.554 8.207H3.237l-1.116 2.669a.874.874 0 1 1-1.614-.675l3.834-9.164A1.69 1.69 0 0 1 5.899 0M3.97 6.457h3.854L5.9 1.85z" />
    </g>
</svg>
